gtk-icons/Papirus-GTK/16x16/mimetypes/application-x-bittorrent.svg

<?xml version="1.0" encoding="UTF-8" standalone="no"?>
<svg
   xmlns:dc="http://purl.org/dc/elements/1.1/"
   xmlns:cc="http://creativecommons.org/ns#"
   xmlns:rdf="http://www.w3.org/1999/02/22-rdf-syntax-ns#"
   xmlns:svg="http://www.w3.org/2000/svg"
   xmlns="http://www.w3.org/2000/svg"
   xmlns:sodipodi="http://sodipodi.sourceforge.net/DTD/sodipodi-0.dtd"
   xmlns:inkscape="http://www.inkscape.org/namespaces/inkscape"
   width="16px"
   height="16px"
   viewBox="0 0 16 16"
   version="1.1"
   id="svg2"
   inkscape:version="0.91 r"
   sodipodi:docname="application-x-bittorrent.svg">
  <metadata
     id="metadata21">
    <rdf:RDF>
      <cc:Work
         rdf:about="">
        <dc:format>image/svg+xml</dc:format>
        <dc:type
           rdf:resource="http://purl.org/dc/dcmitype/StillImage" />
      </cc:Work>
    </rdf:RDF>
  </metadata>
  <defs
     id="defs19" />
  <sodipodi:namedview
     pagecolor="#ffffff"
     bordercolor="#666666"
     borderopacity="1"
     objecttolerance="10"
     gridtolerance="10"
     guidetolerance="10"
     inkscape:pageopacity="0"
     inkscape:pageshadow="2"
     inkscape:window-width="1535"
     inkscape:window-height="876"
     id="namedview17"
     showgrid="false"
     inkscape:zoom="14.75"
     inkscape:cx="-4.0338983"
     inkscape:cy="8"
     inkscape:window-x="65"
     inkscape:window-y="24"
     inkscape:window-maximized="1"
     inkscape:current-layer="svg2" />
  <g
     id="surface1"
     transform="matrix(1.2,0,0,1.2,-1.6,-1.1)">
    <path
       style="fill:#1e94f0;fill-opacity:1;fill-rule:nonzero;stroke:none"
       d="M 3.625,1.75 C 3.277344,1.75 3,2.027344 3,2.375 l 0,11.25 c 0,0.347656 0.277344,0.625 0.625,0.625 l 8.75,0 C 12.722656,14.25 13,13.972656 13,13.625 L 13,5.5 9.5625,5.1875 9.25,1.75 Z m 0,0"
       id="path5"
       inkscape:connector-curvature="0" />
    <path
       style="fill:#7abff5;fill-opacity:1;fill-rule:nonzero;stroke:none"
       d="m 9.25,1.75 0,3.125 C 9.25,5.21875 9.53125,5.5 9.875,5.5 L 13,5.5 Z m 0,0"
       id="path7"
       inkscape:connector-curvature="0" />
    <path
       style="fill:#ffffff;fill-opacity:0.4;fill-rule:nonzero;stroke:none"
       d="m 8.070312,6.035156 c -0.894531,0 -1.730468,0.347656 -2.359374,0.972656 C 5.089844,7.632812 4.75,8.464844 4.75,9.351562 4.75,10.496094 5.347656,11.53125 6.238281,12.15625 6.765625,12.378906 7.34375,12.5 7.953125,12.5 8.3125,12.5 8.664062,12.453125 9,12.371094 6.664062,12.3125 5.382812,10.96875 5.324219,9.351562 c 0,-0.734374 0.28125,-1.421874 0.796875,-1.9375 C 6.636719,6.898438 7.328125,6.613281 8.070312,6.613281 Z m 0,0"
       id="path9"
       inkscape:connector-curvature="0" />
    <path
       style="fill:#ffffff;fill-opacity:0.6;fill-rule:nonzero;stroke:none"
       d="m 8.113281,6.863281 c -0.25,-0.00781 -0.5,0.019531 -0.75,0.089844 C 6.707031,7.128906 6.167969,7.539062 5.84375,8.105469 5.160156,9.300781 5.523438,10.757812 6.707031,11.574219 7.441406,12.078125 8.417969,12.238281 9.316406,12.25 9.746094,12.101562 10.144531,11.886719 10.5,11.617188 9.480469,11.734375 7.980469,11.757812 7.027344,11.105469 6.09375,10.464844 5.804688,9.320312 6.335938,8.390625 6.585938,7.953125 7.003906,7.636719 7.507812,7.5 8.03125,7.359375 8.566406,7.429688 9.023438,7.695312 L 9.308594,7.199219 C 8.941406,6.988281 8.53125,6.875 8.113281,6.863281 Z m 0,0"
       id="path11"
       inkscape:connector-curvature="0" />
    <path
       style="fill:#ffffff;fill-opacity:1;fill-rule:nonzero;stroke:none"
       d="M 7.976562,7.617188 C 7.683594,7.628906 7.398438,7.710938 7.140625,7.859375 6.570312,8.1875 6.25,8.789062 6.25,9.40625 6.25,9.695312 6.320312,9.984375 6.464844,10.25 l 0,0.0039 c 0,0 0.00391,0.0078 0.00781,0.01172 l -0.00391,0 c 0,0 0.00391,0.0039 0.00781,0.0078 0.00391,0.0078 0.011719,0.02344 0.011719,0.02344 0.089844,0.15625 0.4375,0.675781 1.195313,0.953125 0.902344,0.328125 2.15625,0.273438 3.085937,0.167969 0.222657,-0.199219 0.425781,-0.421875 0.605469,-0.664063 -0.820312,0.136719 -2.46875,0.332032 -3.496094,-0.04297 -0.597656,-0.21875 -0.847656,-0.613282 -0.890625,-0.695313 0,0 -0.00391,-0.0039 -0.00391,-0.0039 C 6.875,9.820312 6.824219,9.613281 6.824219,9.40625 c 0,-0.417969 0.214843,-0.828125 0.605469,-1.050781 0.28125,-0.164063 0.605468,-0.207031 0.917968,-0.121094 0.3125,0.082031 0.574219,0.285156 0.738282,0.5625 L 9.589844,8.53125 9.582031,8.511719 C 9.34375,8.097656 8.957031,7.804688 8.496094,7.679688 8.324219,7.632812 8.148438,7.613281 7.976562,7.617188 Z m 0,0"
       id="path13"
       inkscape:connector-curvature="0" />
    <path
       style="fill:#ffffff;fill-opacity:0.10196102;fill-rule:nonzero;stroke:none"
       d="M 3.625,1.75 C 3.277344,1.75 3,2.027344 3,2.375 l 0,0.5 C 3,2.527344 3.277344,2.25 3.625,2.25 l 5.625,0 c 0,-0.5 0,0 0,-0.5 z m 0,0"
       id="path15"
       inkscape:connector-curvature="0" />
  </g>
</svg>

<?xml version="1.0" encoding="UTF-8" standalone="no"?>
<svg id="svg2" xmlns:rdf="http://www.w3.org/1999/02/22-rdf-syntax-ns#" xmlns="http://www.w3.org/2000/svg" height="16px" width="16px" version="1.1" xmlns:cc="http://creativecommons.org/ns#" xmlns:dc="http://purl.org/dc/elements/1.1/" viewBox="0 0 16 16">
 <metadata id="metadata21">
  <rdf:RDF>
   <cc:Work rdf:about="">
    <dc:format>image/svg+xml</dc:format>
    <dc:type rdf:resource="http://purl.org/dc/dcmitype/StillImage"/>
   </cc:Work>
  </rdf:RDF>
 </metadata>
 <g id="surface1" transform="matrix(1.2,0,0,1.2,-1.6,-1.1)">
  <path id="path5" d="m3.625 1.75c-0.3477 0-0.625 0.2773-0.625 0.625v11.25c0 0.34766 0.27734 0.625 0.625 0.625h8.75c0.348 0 0.625-0.277 0.625-0.625v-8.125l-3.4375-0.3125-0.3125-3.4375z" fill="#1e94f0"/>
  <path id="path7" d="m9.25 1.75v3.125c0 0.3438 0.2812 0.625 0.625 0.625h3.125z" fill="#7abff5"/>
  <path id="path9" d="m8.0703 6.0352c-0.89453 0-1.7305 0.34766-2.3594 0.97266-0.6211 0.6249-0.9609 1.4569-0.9609 2.3437 0 1.1444 0.5977 2.1794 1.4883 2.8044 0.5273 0.223 1.1055 0.344 1.7148 0.344 0.3594 0 0.711-0.047 1.0469-0.129-2.3359-0.059-3.6172-1.402-3.6758-3.0194 0-0.73437 0.28125-1.4219 0.79688-1.9375 0.5156-0.5157 1.207-0.8008 1.9492-0.8008z" fill-opacity=".4" fill="#fff"/>
  <path id="path11" d="m8.1133 6.8633c-0.25-0.00781-0.5 0.019531-0.75 0.089844-0.6563 0.1758-1.1953 0.586-1.5195 1.1524-0.6836 1.1953-0.3204 2.6525 0.8632 3.4685 0.7344 0.504 1.711 0.664 2.6094 0.676 0.4297-0.148 0.8286-0.363 1.1836-0.633-1.0195 0.117-2.5195 0.141-3.4727-0.512-0.9335-0.64-1.2226-1.7847-0.6914-2.7144 0.25-0.4375 0.668-0.7539 1.1719-0.8906 0.5234-0.1406 1.0586-0.0703 1.5156 0.1953l0.2852-0.4961c-0.3672-0.2109-0.7774-0.3242-1.1953-0.3359z" fill-opacity=".6" fill="#fff"/>
  <path id="path13" d="m7.9766 7.6172c-0.293 0.0117-0.5782 0.0937-0.836 0.2422-0.5703 0.3281-0.8906 0.9297-0.8906 1.5468 0 0.2891 0.0703 0.5782 0.2148 0.8438v0.0039s0.00391 0.0078 0.00781 0.01172h-0.00391s0.00391 0.0039 0.00781 0.0078c0.00391 0.0078 0.011719 0.02344 0.011719 0.02344 0.089844 0.15625 0.4375 0.67578 1.1953 0.95312 0.90234 0.32812 2.1562 0.27344 3.0859 0.16797 0.22266-0.19922 0.42578-0.42188 0.60547-0.66406-0.82031 0.13672-2.4688 0.33203-3.4961-0.04297-0.59766-0.21875-0.84766-0.61328-0.89062-0.69531l-0.00391-0.0039c-0.1093-0.1917-0.1601-0.3987-0.1601-0.6058 0-0.41797 0.21484-0.82812 0.60547-1.0508 0.28125-0.16406 0.60547-0.20703 0.91797-0.12109 0.3125 0.082031 0.57422 0.28516 0.73828 0.5625l0.5039-0.2656-0.0078-0.0195c-0.2382-0.414-0.625-0.707-1.0859-0.832-0.1719-0.0469-0.3477-0.0664-0.5195-0.0625z" fill="#fff"/>
  <path id="path15" d="m3.625 1.75c-0.3477 0-0.625 0.2773-0.625 0.625v0.5c0-0.3477 0.2773-0.625 0.625-0.625h5.625v-0.5z" fill-opacity=".10196" fill="#fff"/>
 </g>
</svg>
